icons/rocket.svg

<svg width="24" height="24" viewBox="0 0 24 24" fill="none" xmlns="http://www.w3.org/2000/svg">
<path d="M11.5597 3.16152C10.3572 4.11816 7.22695 7.03452 7.01169 11.6123C6.91214 13.7294 7.43605 16.2018 9.06242 19H14.9883C16.5824 16.2012 17.0912 13.7283 16.987 11.6109C16.7619 7.03867 13.6779 4.12409 12.4886 3.16449C12.3574 3.0586 12.1937 3.00055 12.0247 3C11.8556 2.99946 11.6915 3.05647 11.5597 3.16152Z" stroke="#1E293B" stroke-width="2" stroke-linecap="round" stroke-linejoin="round"/>
<path d="M7.01169 11.6123L4.20105 14.5366C4.11614 14.6249 4.05573 14.729 4.02446 14.8407C3.99319 14.9525 3.99188 15.0689 4.02066 15.1812L5.3611 20.4111C5.39306 20.5358 5.4611 20.6513 5.55882 20.7469C5.65654 20.8424 5.78072 20.9149 5.91965 20.9573C6.05858 20.9997 6.20769 21.0108 6.35291 20.9894C6.49813 20.9681 6.63469 20.915 6.74971 20.8352L9.39554 19" stroke="#1E293B" stroke-width="2" stroke-linecap="round" stroke-linejoin="round"/>
<path d="M16.987 11.6108L19.799 14.5365C19.8839 14.6248 19.9443 14.7289 19.9755 14.8406C20.0068 14.9524 20.0081 15.0689 19.9793 15.1811L18.6389 20.411C18.6069 20.5357 18.5389 20.6512 18.4412 20.7468C18.3435 20.8424 18.2193 20.9148 18.0803 20.9572C17.9414 20.9996 17.7923 21.0107 17.6471 20.9893C17.5019 20.968 17.3653 20.9149 17.2503 20.8351L14.6045 18.9999" stroke="#1E293B" stroke-width="2" stroke-linecap="round" stroke-linejoin="round"/>
<path d="M12 10H12.01" stroke="#1E293B" stroke-width="2" stroke-linecap="round" stroke-linejoin="round"/>
<path d="M10 22H14" stroke="#1E293B" stroke-width="2" stroke-linecap="round" stroke-linejoin="round"/>
</svg>

<svg
  width="24"
  height="24"
  viewBox="0 0 24 24"
  xmlns="http://www.w3.org/2000/svg"
  fill="none"
  stroke="currentColor"
  stroke-width="2"
  stroke-linecap="round"
  stroke-linejoin="round"
>
  <path d="M11.56 3.162c-1.203.956-4.333 3.873-4.548 8.45-.1 2.117.424 4.59 2.05 7.388h5.926c1.594-2.799 2.103-5.272 1.999-7.39-.225-4.571-3.31-7.486-4.498-8.446a.743.743 0 0 0-.93-.002z" />
  <path d="M7.012 11.612l-2.81 2.925a.72.72 0 0 0-.178.304.655.655 0 0 0-.003.34l1.34 5.23c.032.125.1.24.198.336a.885.885 0 0 0 .36.21.994.994 0 0 0 .434.032.935.935 0 0 0 .397-.154L9.396 19" />
  <path d="M16.987 11.61l2.812 2.927a.719.719 0 0 1 .177.304.654.654 0 0 1 .003.34l-1.34 5.23a.722.722 0 0 1-.198.336.884.884 0 0 1-.36.21.993.993 0 0 1-.434.032.935.935 0 0 1-.397-.154L14.604 19" />
  <path d="M12 10h.01" />
  <path d="M10 22h4" />
</svg>
